svg/fluentui-system-icons/ic_fluent_wand_20_regular.svg

<svg width="20" height="20" viewBox="0 0 20 20" fill="none" xmlns="http://www.w3.org/2000/svg">
<path d="M16.5 2C16.7761 2 17 2.22386 17 2.5V3H17.5C17.7761 3 18 3.22386 18 3.5C18 3.77614 17.7761 4 17.5 4H17V4.5C17 4.77614 16.7761 5 16.5 5C16.2238 5 16 4.77614 16 4.5V4H15.5C15.2238 4 15 3.77614 15 3.5C15 3.22386 15.2238 3 15.5 3H16V2.5C16 2.22386 16.2238 2 16.5 2ZM6.49998 6C6.77612 6 6.99998 5.77614 6.99998 5.5C6.99998 5.22386 6.77612 5 6.49998 5H5.99998V4.5C5.99998 4.22386 5.77612 4 5.49998 4C5.22384 4 4.99998 4.22386 4.99998 4.5V5H4.49998C4.22384 5 3.99998 5.22386 3.99998 5.5C3.99998 5.77614 4.22384 6 4.49998 6H4.99998V6.5C4.99998 6.77614 5.22384 7 5.49998 7C5.77612 7 5.99998 6.77614 5.99998 6.5V6H6.49998ZM15.5 15C15.7761 15 16 14.7761 16 14.5C16 14.2239 15.7761 14 15.5 14H15V13.5C15 13.2239 14.7761 13 14.5 13C14.2238 13 14 13.2239 14 13.5V14H13.5C13.2238 14 13 14.2239 13 14.5C13 14.7761 13.2238 15 13.5 15H14V15.5C14 15.7761 14.2238 16 14.5 16C14.7761 16 15 15.7761 15 15.5V15H15.5ZM13.4344 6.56566C12.6869 5.81812 11.4749 5.81812 10.7273 6.56566L2.56055 14.7324C1.81299 15.4799 1.81299 16.6919 2.56054 17.4395C3.30808 18.187 4.52009 18.187 5.26764 17.4395L13.4344 9.27278C14.182 8.52523 14.182 7.31321 13.4344 6.56566ZM11.4344 7.27277C11.7915 6.91575 12.3703 6.91575 12.7273 7.27277C13.0844 7.6298 13.0844 8.20865 12.7273 8.56567L12.25 9.04299L10.9571 7.7501L11.4344 7.27277ZM10.25 8.4572L11.5429 9.75009L4.56054 16.7324C4.20351 17.0894 3.62467 17.0894 3.26765 16.7324C2.91062 16.3754 2.91062 15.7965 3.26765 15.4395L10.25 8.4572Z" fill="#212121"/>
</svg>

<svg xmlns="http://www.w3.org/2000/svg" width="20" height="20"><path d="M16.5 2a.5.5 0 0 1 .5.5V3h.5a.5.5 0 0 1 0 1H17v.5a.5.5 0 0 1-1 0V4h-.5a.5.5 0 1 1 0-1h.5v-.5a.5.5 0 0 1 .5-.5Zm-10 4a.5.5 0 0 0 0-1H6v-.5a.5.5 0 0 0-1 0V5h-.5a.5.5 0 0 0 0 1H5v.5a.5.5 0 0 0 1 0V6h.5Zm9 9a.5.5 0 0 0 0-1H15v-.5a.5.5 0 0 0-1 0v.5h-.5a.5.5 0 1 0 0 1h.5v.5a.5.5 0 1 0 1 0V15h.5Zm-2.066-8.434a1.914 1.914 0 0 0-2.707 0l-8.166 8.166a1.914 1.914 0 1 0 2.707 2.707l8.166-8.166a1.914 1.914 0 0 0 0-2.707Zm-2 .707a.914.914 0 0 1 1.293 1.293l-.477.477-1.293-1.293.477-.477ZM10.25 8.457l1.293 1.293-6.982 6.982a.914.914 0 0 1-1.293-1.292l6.982-6.983Z"/></svg>
